X:1
T:Sunlight in the Heart
T:Sunlight in the Heart
T:M. T. Haughey
T:Mrs. M. T. Haughey, 1886
T:Public Domain Courtesy of the Cyber Hymnal™
T:Public Domain Courtesy of the Cyber Hymnal™
C:M. T. Haughey
Z:Public Domain
Z:Courtesy of the Cyber Hymnal™
%%score ( 1 2 ) ( 3 4 )
L:1/8
Q:1/4=95
M:3/4
K:A
V:1 treble 
V:2 treble 
V:3 bass 
V:4 bass 
V:1
 EE | [Ec]3 [Ee] [^EB][Ec] | [FA]2 [DF]2 [DF][DA] | E3 [EA] [DG][CA] | [EB]4 EE | %5
w: 1.~There is|sun- light on the|hill- top, There is|sun- light on the|sea; And the|
w: 2.~In the|dust I leave my|sad- ness, As the|garb of o- ther|days; For Thou|
w: 3.~Lov- ing|Sav- ior, Thou hast|bought me, And my|life, my all, is|Thine; Let the|
 [Ec]3 [Ee] [^EB][Ec] | [FA]2 [DF]2 [DF][DA] | E3 [Ec] [DB][Ec] | [CA]4 [Ec][Ed] | %9
w: gold- en beams are|sleep- ing, On the|soft and ver- dant|lea; But a|
w: rob- est me with|glad- ness, And Thou|fill- est me with|praise; And to|
w: lamp Thy love hath|light- ed To Thy|praise and glo- ry|shine; And to|
 [Ee]3 [Ec] [Ee][Ec] | [EA]2 [Ec]2 [EA][EA] | [FA]3 [FA] [Fc][FA] | [GB]4 [Ec][Ed] | %13
w: rich- er light is|fill- ing All the|cham- bers of my|heart; For Thou|
w: that bright home of|glo- ry Which Thy|love hath won for|me, In my|
w: that bright home of|glo- ry, Which Thy|love hath won for|me, In my|
 [Ee]3 [Ac] [GB][Gc] | [FA]2 F2 [DF][DA] | [CE]3 [Ec] [DB][Ec] | [CA]4 ||"^Refrain" [Ec][Ed] | %18
w: dwell- est there, my|Sav- ior, And ’tis|sun- light where Thou|art.||
w: heart and mind as-|cend- ing, My glad|spir- it fol- lows|Thee.|O the|
w: heart and mind as-|cend- ing, My glad|spir- it fol- lows|Thee.||
 [Ee]2 [GB]2 (3[GB][Ac][GB] | [EA]2 E2 [Ac][Ad] | [Ae]3 [Ac] A[Ac] | [GB]4 [Ec][Ed] | %22
w: ||||
w: sun- light! beau- ti- ful|sun- light! O the|sun- light in the|heart! Je- sus’|
w: ||||
 [Ee]3 [Ac] [GB][Gc] | [FA]2 F2 [DF][DA] | [CE]3 [Ec] [DB][Ec] | [CA]4 |] %26
w: ||||
w: smile can ban- ish|sad- ness; It is|sun- light in the|heart.|
w: ||||
V:2
 EE | x6 | x6 | E3 x3 | x4 EE | x6 | x6 | E3 x3 | x6 | x6 | x6 | x6 | x6 | x6 | x2 F2 x2 | x6 | %16
 x4 || x2 | x6 | x2 E2 x2 | x4 A x | x6 | x6 | x2 F2 x2 | x6 | x4 |] %26
V:3
 E,E, | [A,,A,]3 [A,,A,] [C,G,][C,B,] | [D,A,]2 [D,A,]2 [D,A,][D,F,] | %3
 [C,A,]3 [C,A,] [B,,E,][A,,A,] | [E,G,]4 [E,G,][E,G,] | [A,,A,]3 [A,,A,] [C,G,][C,B,] | %6
 [D,A,]2 [D,A,]2 [D,A,][D,F,] | [C,A,]3 [A,,A,] [E,G,][E,G,] | [A,,A,]4 A,[A,B,] | %9
 [A,C]3 [A,C] [A,C]A, | [A,C]2 A,2 [A,C][A,C] | [F,C]3 [F,C] [F,A,][F,C] | [E,E]4 A,[A,B,] | %13
 [A,C]3 [A,E] [E,D][E,E] | [F,C]2 [D,D]2 [D,A,][D,F,] | [E,A,]3 [E,A,] [E,G,][E,G,] | [A,,A,]4 || %17
 A,[A,B,] | [A,C]2 [A,E]2 (3[E,D][E,E][E,D] | [A,C]2 [A,C]2 [A,E][A,D] | [A,C]3 [A,E] [CE][A,E] | %21
 [E,E]4 A,[A,B,] | [A,C]3 [A,E] [E,D][E,E] | [F,C]2 [D,D]2 [D,A,][D,F,] | %24
 [E,A,]3 [E,A,] [E,G,][E,G,] | [A,,A,]4 |] %26
V:4
 E,E, | x6 | x6 | x6 | x6 | x6 | x6 | x6 | x4 A, x | x5 A, | x2 A,2 x2 | x6 | x4 A, x | x6 | x6 | %15
 x6 | x4 || A, x | x6 | x6 | x6 | x4 A, x | x6 | x6 | x6 | x4 |] %26

